; G-Code generated by Simplify3D(R) Version 4.0.1
; Mar 1, 2023 at 6:02:31 PM
; Settings Summary
;   processName,Process1
;   applyToModels,poing_americain,AddsForIMUFistSupport v0,BNO055_Housing_v1
;   profileName,Witbox (modified)
;   profileVersion,2021-04-13 17:03:33
;   baseProfile,Default
;   printMaterial,PLA
;   printQuality,Medium
;   printExtruders,
;   extruderName,Extruder 1
;   extruderToolheadNumber,0
;   extruderDiameter,0.4
;   extruderAutoWidth,0
;   extruderWidth,0.35
;   extrusionMultiplier,1.02
;   extruderUseRetract,1
;   extruderRetractionDistance,3
;   extruderExtraRestartDistance,0
;   extruderRetractionZLift,0
;   extruderRetractionSpeed,1800
;   extruderUseCoasting,0
;   extruderCoastingDistance,0.2
;   extruderUseWipe,0
;   extruderWipeDistance,5
;   primaryExtruder,0
;   layerHeight,0.2
;   topSolidLayers,3
;   bottomSolidLayers,3
;   perimeterOutlines,3
;   printPerimetersInsideOut,1
;   startPointOption,2
;   startPointOriginX,0
;   startPointOriginY,0
;   sequentialIslands,0
;   spiralVaseMode,0
;   firstLayerHeightPercentage,100
;   firstLayerWidthPercentage,100
;   firstLayerUnderspeed,0.5
;   useRaft,0
;   raftExtruder,0
;   raftTopLayers,3
;   raftBaseLayers,2
;   raftOffset,3
;   raftSeparationDistance,0.14
;   raftTopInfill,100
;   aboveRaftSpeedMultiplier,0.3
;   useSkirt,1
;   skirtExtruder,0
;   skirtLayers,1
;   skirtOutlines,1
;   skirtOffset,4
;   usePrimePillar,0
;   primePillarExtruder,999
;   primePillarWidth,12
;   primePillarLocation,7
;   primePillarSpeedMultiplier,1
;   useOozeShield,0
;   oozeShieldExtruder,999
;   oozeShieldOffset,2
;   oozeShieldOutlines,1
;   oozeShieldSidewallShape,1
;   oozeShieldSidewallAngle,30
;   oozeShieldSpeedMultiplier,1
;   infillExtruder,0
;   internalInfillPattern,Grid
;   externalInfillPattern,Rectilinear
;   infillPercentage,15
;   outlineOverlapPercentage,25
;   infillExtrusionWidthPercentage,100
;   minInfillLength,5
;   infillLayerInterval,1
;   internalInfillAngles,45,-45
;   overlapInternalInfillAngles,1
;   externalInfillAngles,45,-45
;   generateSupport,1
;   supportExtruder,0
;   supportInfillPercentage,20
;   supportExtraInflation,0
;   supportBaseLayers,0
;   denseSupportExtruder,0
;   denseSupportLayers,0
;   denseSupportInfillPercentage,40
;   supportLayerInterval,1
;   supportHorizontalPartOffset,0.3
;   supportUpperSeparationLayers,1
;   supportLowerSeparationLayers,1
;   supportType,1
;   supportGridSpacing,2.5
;   maxOverhangAngle,45
;   supportAngles,0
;   temperatureName,Extruder 1 Temperature
;   temperatureNumber,0
;   temperatureSetpointCount,1
;   temperatureSetpointLayers,1
;   temperatureSetpointTemperatures,210
;   temperatureStabilizeAtStartup,1
;   temperatureHeatedBed,0
;   temperatureRelayBetweenLayers,0
;   temperatureRelayBetweenLoops,0
;   fanLayers,1,2
;   fanSpeeds,0,100
;   blipFanToFullPower,0
;   adjustSpeedForCooling,1
;   minSpeedLayerTime,15
;   minCoolingSpeedSlowdown,20
;   increaseFanForCooling,0
;   minFanLayerTime,45
;   maxCoolingFanSpeed,100
;   increaseFanForBridging,0
;   bridgingFanSpeed,100
;   use5D,1
;   relativeEdistances,0
;   allowEaxisZeroing,1
;   independentExtruderAxes,0
;   includeM10123,0
;   stickySupport,1
;   applyToolheadOffsets,0
;   gcodeXoffset,0
;   gcodeYoffset,0
;   gcodeZoffset,0
;   overrideMachineDefinition,1
;   machineTypeOverride,0
;   strokeXoverride,300
;   strokeYoverride,200
;   strokeZoverride,200
;   originOffsetXoverride,0
;   originOffsetYoverride,0
;   originOffsetZoverride,0
;   homeXdirOverride,-1
;   homeYdirOverride,-1
;   homeZdirOverride,-1
;   flipXoverride,1
;   flipYoverride,-1
;   flipZoverride,1
;   toolheadOffsets,0,0|0,0|0,0|0,0|0,0|0,0
;   overrideFirmwareConfiguration,1
;   firmwareTypeOverride,RepRap (Marlin/Repetier/Sprinter)
;   GPXconfigOverride,r2
;   baudRateOverride,115200
;   overridePrinterModels,0
;   printerModelsOverride
;   startingGcode,G28 ; home all axes,G1 Z5.0 F1200 ;move the platform down 15mm,G92 E0                  ;zero the extruded length,G1 F200 E4              ;extrude 1mm of feed stock,G92 E0                  ;zero the extruded length again,G1 F{travel_speed},;Put printing message on LCD screen,M117 Imprimiendo...,; -- end of START GCODE --
;   layerChangeGcode,
;   retractionGcode,
;   toolChangeGcode,
;   endingGcode,M104 S0 ; turn off extruder,M140 S0 ; turn off bed,G91                                    ;relative positioning,G1 E-2 F400                            ;retract the filament a bit before lifting the nozzle, to release some of the pressure,G1 Z+2 F{travel_speed} ;move Z up,G90                     ;absolute positioning,G1 X0 Y180 F{travel_speed} ;move Z up a bit and retract filament even more the way,M84 ; disable motors
;   exportFileFormat,gcode
;   celebration,0
;   celebrationSong,Take On Me
;   postProcessing,
;   defaultSpeed,3600
;   outlineUnderspeed,0.5
;   solidInfillUnderspeed,0.8
;   supportUnderspeed,0.8
;   rapidXYspeed,4800
;   rapidZspeed,1000
;   minBridgingArea,50
;   bridgingExtraInflation,0
;   bridgingExtrusionMultiplier,1
;   bridgingSpeedMultiplier,1
;   useFixedBridgingAngle,0
;   fixedBridgingAngle,0
;   applyBridgingToPerimeters,0
;   filamentDiameters,1.75|1.75|1.75|1.75|1.75|1.75
;   filamentPricesPerKg,19|19|19|19|19|19
;   filamentDensities,1.25|1.25|1.25|1.25|1.25|1.25
;   useMinPrintHeight,0
;   minPrintHeight,0
;   useMaxPrintHeight,0
;   maxPrintHeight,0
;   useDiaphragm,0
;   diaphragmLayerInterval,20
;   robustSlicing,1
;   mergeAllIntoSolid,0
;   onlyRetractWhenCrossingOutline,1
;   retractBetweenLayers,1
;   useRetractionMinTravel,0
;   retractionMinTravel,3
;   retractWhileWiping,0
;   onlyWipeOutlines,1
;   avoidCrossingOutline,0
;   maxMovementDetourFactor,3
;   toolChangeRetractionDistance,12
;   toolChangeExtraRestartDistance,-0.5
;   toolChangeRetractionSpeed,600
;   externalThinWallType,0
;   internalThinWallType,2
;   thinWallAllowedOverlapPercentage,10
;   singleExtrusionMinLength,1
;   singleExtrusionMinPrintingWidthPercentage,50
;   singleExtrusionMaxPrintingWidthPercentage,200
;   singleExtrusionEndpointExtension,0.2
;   horizontalSizeCompensation,0
G90
M82
M106 S0
M104 S210 T0
M109 S210 T0
G28 ; home all axes
G1 Z5.0 F1200 ;move the platform down 15mm
G92 E0                  ;zero the extruded length
G1 F200 E4              ;extrude 1mm of feed stock
G92 E0                  ;zero the extruded length again
G1 F{travel_speed}
;Put printing message on LCD screen
M117 Imprimiendo...
; -- end of START GCODE --
G92 E0
G1 E-3.0000 F1800
G1 Z0.200 F1000
; process Process1
; layer 1, Z = 0.200
T0
; tool H0.200 W0.350
; skirt
G1 X84.640 Y100.620 F4800
G1 E0.0000 F540
G92 E0
G1 X84.645 Y100.615 E0.0002 F1800
G1 X86.724 Y98.882 E0.0805
G1 X86.729 Y98.878 E0.0807
G1 X87.009 Y98.682 E0.0909
G1 X87.015 Y98.678 E0.0911
G1 X89.352 Y97.315 E0.1714
G1 X89.359 Y97.312 E0.1716
G1 X89.667 Y97.165 E0.1818
G1 X89.674 Y97.162 E0.1820
G1 X92.205 Y96.207 E0.2623
G1 X92.212 Y96.205 E0.2625
G1 X92.540 Y96.111 E0.2726
G1 X92.547 Y96.109 E0.2729
G1 X95.202 Y95.588 E0.3532
G1 X95.209 Y95.587 E0.3534
G1 X95.549 Y95.549 E0.3635
G1 X95.556 Y95.549 E0.3637
G1 X98.260 Y95.475 E0.4441
G1 X98.268 Y95.476 E0.4443
G1 X98.609 Y95.495 E0.4544
G1 X98.616 Y95.496 E0.4546
G1 X101.295 Y95.873 E0.5349
G1 X101.302 Y95.874 E0.5352
G1 X101.635 Y95.950 E0.5453
G1 X101.642 Y95.952 E0.5455
G1 X103.581 Y96.566 E0.6059
G1 X103.659 Y96.324 E0.6134
G1 X103.661 Y96.317 E0.6136
G1 X103.793 Y96.001 E0.6238
G1 X103.796 Y95.995 E0.6240
G1 X104.988 Y93.694 E0.7009
G1 X104.991 Y93.688 E0.7011
G1 X105.173 Y93.399 E0.7113
G1 X105.177 Y93.393 E0.7115
G1 X106.735 Y91.323 E0.7884
G1 X106.740 Y91.317 E0.7886
G1 X106.967 Y91.062 E0.7988
G1 X106.972 Y91.057 E0.7990
G1 X108.391 Y89.712 E0.8570
G1 X108.391 Y86.554 E0.9507
G1 X108.418 Y86.490 E0.9528
G1 X110.810 Y84.098 E1.0532
G1 X110.874 Y84.071 E1.0553
G1 X112.627 Y84.071 E1.1073
G1 X112.616 Y70.151 E1.5206
G1 X112.616 Y70.147 E1.5207
G1 X112.622 Y69.986 E1.5255
G1 X112.622 Y69.982 E1.5256
G1 X112.687 Y69.161 E1.5500
G1 X112.687 Y69.156 E1.5502
G1 X112.720 Y68.919 E1.5573
G1 X112.721 Y68.914 E1.5574
G1 X112.829 Y68.365 E1.5740
G1 X112.830 Y68.360 E1.5742
G1 X112.891 Y68.126 E1.5814
G1 X112.893 Y68.121 E1.5815
G1 X113.159 Y67.299 E1.6072
G1 X113.161 Y67.294 E1.6073
G1 X113.248 Y67.071 E1.6144
G1 X113.250 Y67.066 E1.6146
G1 X113.465 Y66.599 E1.6298
G1 X113.466 Y66.596 E1.6299
G1 X113.539 Y66.453 E1.6347
G1 X113.541 Y66.450 E1.6348
G1 X113.792 Y66.001 E1.6501
G1 X113.794 Y65.996 E1.6502
G1 X113.924 Y65.793 E1.6574
G1 X113.927 Y65.789 E1.6575
G1 X114.437 Y65.086 E1.6833
G1 X114.440 Y65.082 E1.6835
G1 X114.592 Y64.896 E1.6906
G1 X114.596 Y64.892 E1.6908
G1 X114.972 Y64.484 E1.7072
G1 X114.976 Y64.480 E1.7074
G1 X115.149 Y64.313 E1.7145
G1 X115.153 Y64.309 E1.7147
G1 X115.843 Y63.719 E1.7417
G1 X115.848 Y63.714 E1.7419
G1 X116.108 Y63.525 E1.7514
G1 X116.114 Y63.521 E1.7516
G1 X116.922 Y63.025 E1.7798
G1 X116.928 Y63.021 E1.7800
G1 X117.214 Y62.875 E1.7895
G1 X117.221 Y62.872 E1.7897
G1 X118.097 Y62.508 E1.8179
G1 X118.103 Y62.506 E1.8181
G1 X118.409 Y62.406 E1.8276
G1 X118.415 Y62.404 E1.8278
G1 X119.337 Y62.182 E1.8560
G1 X119.344 Y62.181 E1.8562
G1 X119.661 Y62.130 E1.8657
G1 X119.668 Y62.129 E1.8659
G1 X120.535 Y62.060 E1.8918
G1 X120.539 Y62.060 E1.8919
G1 X120.701 Y62.053 E1.8967
G1 X120.705 Y62.053 E1.8968
G1 X142.831 Y62.053 E2.5536
G1 X142.832 Y62.053 E2.5536
G1 X142.913 Y62.055 E2.5560
G1 X142.915 Y62.055 E2.5561
G1 X143.383 Y62.073 E2.5700
G1 X143.388 Y62.073 E2.5702
G1 X143.626 Y62.097 E2.5772
G1 X143.631 Y62.097 E2.5774
G1 X144.527 Y62.238 E2.6043
G1 X144.534 Y62.240 E2.6045
G1 X144.846 Y62.314 E2.6141
G1 X144.853 Y62.316 E2.6143
G1 X145.756 Y62.608 E2.6424
G1 X145.762 Y62.611 E2.6426
G1 X146.059 Y62.733 E2.6522
G1 X146.065 Y62.736 E2.6524
G1 X146.911 Y63.166 E2.6805
G1 X146.917 Y63.169 E2.6808
G1 X147.191 Y63.337 E2.6903
G1 X147.197 Y63.341 E2.6905
G1 X147.965 Y63.897 E2.7187
G1 X147.971 Y63.902 E2.7189
G1 X148.215 Y64.110 E2.7284
G1 X148.220 Y64.115 E2.7286
G1 X148.863 Y64.756 E2.7556
G1 X148.867 Y64.760 E2.7557
G1 X149.027 Y64.940 E2.7629
G1 X149.030 Y64.944 E2.7630
G1 X149.374 Y65.379 E2.7795
G1 X149.377 Y65.383 E2.7797
G1 X149.515 Y65.581 E2.7868
G1 X149.518 Y65.585 E2.7870
G1 X149.994 Y66.360 E2.8139
G1 X149.997 Y66.366 E2.8141
G1 X150.143 Y66.652 E2.8237
G1 X150.146 Y66.658 E2.8239
G1 X150.510 Y67.534 E2.8520
G1 X150.513 Y67.540 E2.8522
G1 X150.612 Y67.846 E2.8618
G1 X150.614 Y67.852 E2.8620
G1 X150.837 Y68.775 E2.8901
G1 X150.838 Y68.781 E2.8903
G1 X150.889 Y69.099 E2.8999
G1 X150.890 Y69.106 E2.9001
G1 X150.959 Y69.973 E2.9259
G1 X150.959 Y69.977 E2.9260
G1 X150.965 Y70.141 E2.9309
G1 X150.966 Y70.144 E2.9310
G1 X150.955 Y84.071 E3.3444
G1 X154.220 Y84.071 E3.4413
G1 X154.284 Y84.098 E3.4434
G1 X156.677 Y86.490 E3.5438
G1 X156.703 Y86.554 E3.5459
G1 X156.703 Y89.507 E3.6336
G1 X156.929 Y89.691 E3.6422
G1 X156.934 Y89.695 E3.6424
G1 X157.183 Y89.936 E3.6527
G1 X157.188 Y89.941 E3.6529
G1 X158.915 Y91.920 E3.7309
G1 X158.920 Y91.926 E3.7311
G1 X159.124 Y92.205 E3.7413
G1 X159.128 Y92.211 E3.7416
G1 X160.499 Y94.452 E3.8195
G1 X160.502 Y94.459 E3.8198
G1 X160.657 Y94.768 E3.8300
G1 X160.660 Y94.774 E3.8302
G1 X160.924 Y95.436 E3.8514
G1 X161.958 Y95.070 E3.8839
G1 X161.965 Y95.068 E3.8842
G1 X162.302 Y94.980 E3.8945
G1 X162.310 Y94.978 E3.8947
G1 X165.071 Y94.505 E3.9779
G1 X165.079 Y94.504 E3.9781
G1 X165.432 Y94.475 E3.9886
G1 X165.440 Y94.475 E3.9889
G1 X168.244 Y94.485 E4.0721
G1 X168.252 Y94.486 E4.0724
G1 X168.605 Y94.518 E4.0829
G1 X168.613 Y94.519 E4.0831
G1 X171.374 Y95.013 E4.1664
G1 X171.381 Y95.015 E4.1666
G1 X171.723 Y95.108 E4.1771
G1 X171.731 Y95.110 E4.1773
G1 X174.365 Y96.073 E4.2606
G1 X174.372 Y96.076 E4.2608
G1 X174.693 Y96.227 E4.2714
G1 X174.700 Y96.230 E4.2716
G1 X177.128 Y97.634 E4.3548
G1 X177.134 Y97.638 E4.3551
G1 X177.425 Y97.841 E4.3656
G1 X177.431 Y97.846 E4.3658
G1 X179.581 Y99.647 E4.4491
G1 X179.586 Y99.653 E4.4493
G1 X179.837 Y99.903 E4.4598
G1 X179.842 Y99.909 E4.4601
G1 X181.649 Y102.054 E4.5433
G1 X181.653 Y102.060 E4.5435
G1 X181.858 Y102.350 E4.5541
G1 X181.862 Y102.357 E4.5543
G1 X183.271 Y104.782 E4.6376
G1 X183.274 Y104.789 E4.6378
G1 X183.425 Y105.109 E4.6483
G1 X183.428 Y105.116 E4.6485
G1 X184.398 Y107.748 E4.7318
G1 X184.400 Y107.756 E4.7320
G1 X184.493 Y108.098 E4.7425
G1 X184.495 Y108.105 E4.7428
G1 X184.996 Y110.865 E4.8260
G1 X184.997 Y110.872 E4.8262
G1 X185.030 Y111.225 E4.8368
G1 X185.030 Y111.233 E4.8370
G1 X185.047 Y114.038 E4.9203
G1 X185.047 Y114.045 E4.9205
G1 X185.018 Y114.399 E4.9310
G1 X185.017 Y114.406 E4.9312
G1 X184.550 Y117.172 E5.0145
G1 X184.549 Y117.179 E5.0147
G1 X184.459 Y117.523 E5.0253
G1 X184.457 Y117.530 E5.0255
G1 X183.520 Y120.173 E5.1087
G1 X183.517 Y120.180 E5.1090
G1 X183.370 Y120.503 E5.1195
G1 X183.366 Y120.510 E5.1197
G1 X181.987 Y122.952 E5.2030
G1 X181.983 Y122.958 E5.2032
G1 X181.782 Y123.251 E5.2137
G1 X181.778 Y123.257 E5.2140
G1 X179.998 Y125.424 E5.2972
G1 X179.993 Y125.430 E5.2974
G1 X179.745 Y125.684 E5.3080
G1 X179.739 Y125.689 E5.3082
G1 X177.611 Y127.516 E5.3914
G1 X177.606 Y127.521 E5.3917
G1 X177.317 Y127.728 E5.4022
G1 X177.311 Y127.732 E5.4024
G1 X174.900 Y129.165 E5.4857
G1 X174.893 Y129.169 E5.4859
G1 X174.574 Y129.323 E5.4964
G1 X174.567 Y129.326 E5.4967
G1 X171.945 Y130.322 E5.5799
G1 X171.938 Y130.324 E5.5801
G1 X171.596 Y130.421 E5.5907
G1 X171.589 Y130.422 E5.5909
G1 X168.834 Y130.951 E5.6742
G1 X168.827 Y130.952 E5.6744
G1 X168.474 Y130.988 E5.6849
G1 X168.467 Y130.988 E5.6851
G1 X166.016 Y131.028 E5.7579
G1 X156.311 Y132.009 E6.0475
G1 X156.307 Y132.009 E6.0476
G1 X156.117 Y132.020 E6.0532
G1 X156.113 Y132.020 E6.0533
G1 X155.531 Y132.024 E6.0706
G1 X155.398 Y132.048 E6.0746
G1 X155.271 Y132.094 E6.0786
G1 X155.154 Y132.160 E6.0826
G1 X155.049 Y132.245 E6.0866
G1 X154.961 Y132.346 E6.0906
G1 X154.890 Y132.461 E6.0946
G1 X154.840 Y132.586 E6.0986
G1 X154.811 Y132.718 E6.1026
G1 X154.805 Y132.853 E6.1066
G1 X154.821 Y132.986 E6.1106
G1 X154.860 Y133.115 E6.1146
G1 X154.920 Y133.236 E6.1186
G1 X154.999 Y133.345 E6.1226
G1 X155.095 Y133.439 E6.1266
G1 X155.206 Y133.516 E6.1306
G1 X155.328 Y133.573 E6.1346
G1 X155.458 Y133.609 E6.1386
G1 X155.593 Y133.622 E6.1426
G1 X156.135 Y133.585 E6.1588
G1 X156.138 Y133.585 E6.1589
G1 X156.278 Y133.580 E6.1630
G1 X156.281 Y133.580 E6.1631
G1 X170.532 Y133.579 E6.5861
G1 X170.556 Y133.582 E6.5869
G1 X171.661 Y133.899 E6.6210
G1 X171.683 Y133.909 E6.6217
G1 X172.540 Y134.445 E6.6517
G1 X172.546 Y134.449 E6.6519
G1 X172.800 Y134.636 E6.6613
G1 X172.805 Y134.641 E6.6615
G1 X173.260 Y135.034 E6.6793
G1 X173.265 Y135.039 E6.6795
G1 X173.490 Y135.267 E6.6891
G1 X173.495 Y135.272 E6.6893
G1 X173.884 Y135.734 E6.7072
G1 X173.888 Y135.739 E6.7074
G1 X174.075 Y136.000 E6.7169
G1 X174.079 Y136.006 E6.7171
G1 X174.391 Y136.523 E6.7351
G1 X174.395 Y136.529 E6.7353
G1 X174.539 Y136.816 E6.7448
G1 X174.542 Y136.822 E6.7450
G1 X174.768 Y137.379 E6.7629
G1 X174.770 Y137.385 E6.7631
G1 X174.866 Y137.686 E6.7724
G1 X174.868 Y137.693 E6.7726
G1 X175.017 Y138.322 E6.7918
G1 X175.018 Y138.331 E6.7921
G1 X175.073 Y138.750 E6.8046
G1 X175.073 Y138.759 E6.8049
G1 X175.126 Y140.800 E6.8655
G1 X175.109 Y140.855 E6.8672
G1 X173.486 Y143.094 E6.9493
G1 X173.439 Y143.128 E6.9510
G1 X167.649 Y144.861 E7.1304
G1 X167.648 Y144.862 E7.1305
G1 X167.574 Y144.882 E7.1327
G1 X167.572 Y144.883 E7.1328
G1 X162.451 Y146.209 E7.2898
G1 X162.450 Y146.209 E7.2899
G1 X162.371 Y146.228 E7.2923
